X: 13963
T: Frances John McGovern
R: reel
M: 4/4
K: Gmajor
BcBA GEED|G2 BG cG BG|BcBA GEED|EAAG A2 GA:|
Bded g2 ed|g2 ed BGGA|Bded g2 fg|eaag aged|
Bded g2 ed|g2 ed BGGA|BcBA GEED|EAAG A4|

